X:1
T: Adieu Terre Neuve
C:
R:Strathspey
Q: 128
K:G
M:4/4
L:1/16
|:G3A BG3 cc3 c4|B3A GB3 A3F D4|G3A BG3 cc3 c4|d3c BA3 G4 G4|
b3a gb3 a3g fa3|g3f eg3 fd3 B4|e3d ce3 d3B B4|c3B AG3 d4 d4|
b3a gb3 a3g fa3|g3f eg3 fd3 B4|e3d ce3 d3B B4|c3B AG3 d4 d4|
G3A BG3 cc3 c4|B3A GB3 A3F D4|G3A BG3 cc3 c4|d3c BA3 G4 G4:|
